X:16835
T:The High Road to Gallaway
M:4/4
L:1/8
K:D
defd cAsAsc|BGsGsB cA A2|defd cAsAsc|BGAF D2D2:|!
ABAG AB c2|GAGF EF G2|ABAG AB c2|BGAF D2D2:|
